X:1
T:Midsummer
T:A Major                      William Walker, 1835
T:Transcribed from Southern Harmony, 1835.
T:John Newton, 1779            88. 88. 88. 88. (L. M. D.) 
%%score [ 1 2 3 ]
L:1/8
Q:1/4=110
M:4/4
K:A
V:1 treble nm="Tr." snm="Tr."
V:2 treble-8 nm="T." snm="T."
V:3 bass nm="B." snm="B."
V:1
 z4"_How  tedious   and   tasteless   the    hours,  When   Jesus  no    lon –  ger     I        see;\nSweet prospects, sweet birds and sweet flowers  Have lost all their sweetness with me.""_1. {" A4 | %1
 c2 c2 ec B2 | B2 cd e4 | e2 c2 A4 | c2 e2 c2 B2 |1"_}" A8 :|2 %6
 A4"_The mid–summer sun shines but dim,   The fields strive in vain to look" c4 |: B2 A2 c2 e2 | %8
 f2 e2 c4 | c4 c2 e2 | c2 B2 A2 c2 | %11
"_1. gay;  But  when  I    am     hap –  py  in      him,     De–cem–ber’s  as  plea – sant   as     May.   The" [Be]4 A4 | %12
 c2 c2 ec B2 | B2 cd e4 | e2 c2 A4 | c2 e2 c2 B2 |1 A4 c4 :|2 A8 |] %18
V:2
 z4"_His  name  yields  the  richest  per – fume,   And  sweeter  than  mu – sic   his      voice;\nHis  pre  –  sence  dis–per–ses  my  gloom,  And  makes  all  with – in   me  re  – joice:""_2. {" A4 | %1
 c2 F2 AF E2 | B2 cB A4 | A2 c2 c4 | A2 BA E2 FG |1"_}" A8 :|2 %6
 A4"_I   should,  were  he  always thus nigh,  Have  nothing  to wish  or to" c4 |: e2 c2 A2 e2 | %8
 c2 e2 f4 | f4 c2 A2 | A2 e2 c2 A2 | %11
"_2. fear;  No   mor – tal  so      hap – py   as         I,       My  summer  would  last  all   the    year.   I" B4 A4 | %12
 c2 F2 AF E2 | B2 cB A4 | A2 c2 c4 | A2 BA F2 EF |1 A4 c4 :|2 A8 |] %18
V:3
 z4"_Content  with  be – hol – ding  his   face,     My  all  to      his   ple – asure  re  –  signed;\nNo   changes   of     sea – son   or   place,   Would  make  a – ny  change  in  my   mind:""_3. {" A,4 | %1
 F,2 F,2 A,F, E,2 | E,2 F,G, A,4 | A,2 F,2 F,4 | A,2 D,2 E,2 D,2 |1"_}" A,,8 :|2 %6
 A,,4"_While blessed with a sense of his love,   A   palace  a  toy  would  ap –" F,4 |: %7
 E,2 F,2 A,2 A,2 | F,2 E,2 F,4 | F,4 F,2 A,2 | F,2 E,2 F,2 A,2 | %11
"_3.  –pear;  And  prisons  would  pa – la – ces  prove,   If  Je – sus  would dwell with  me  there.  While" E,4 A,4 | %12
 F,2 F,2 A,F, E,2 | E,2 F,G, A,4 | A,2 F,2 F,4 | %15
"____________________________________________________________\nEdited by B. C. Johnston, 2018\n   Measure 5, Tenor: last three notes changed from F#–E–F# to E–F#–G#." A,2 E,2 C,2 E,2 |1 %16
 A,,4 F,4 :|2 A,,8 |] %18

